tools/download-figma-icons/icons/outlined-medium/craftsman.svg

<svg width="24" height="25" viewBox="0 0 24 25" fill="none" xmlns="http://www.w3.org/2000/svg">
<path fill-rule="evenodd" clip-rule="evenodd" d="M12.4097 14.3228H11.5907C11.0919 14.3228 10.6007 14.223 10.1312 14.0528L9.85818 14.8695L12.0002 17.0123L14.1414 14.8695L13.8692 14.0528C13.3997 14.223 12.9084 14.3228 12.4097 14.3228ZM8.31844 8.80497V9.60822C8.31844 11.2155 9.95419 12.8227 11.5907 12.8227H12.4097C14.0454 12.8227 15.6819 11.2155 15.6819 9.60822V8.80497C15.6819 8.80497 16.5002 8.80497 16.5002 8.00097V7.19772C16.5002 6.39447 15.6819 6.39447 15.6819 6.39447C17.3184 3.98322 14.8637 1.57272 14.8637 1.57272C14.8637 1.57272 14.0454 3.17997 10.7724 3.17997C7.96779 3.17997 8.16812 4.95078 8.28264 5.96311C8.30173 6.13188 8.31844 6.27958 8.31844 6.39447C7.50019 6.39447 7.50019 6.93672 7.50019 7.19772V8.00097C7.50019 8.80497 8.31844 8.80497 8.31844 8.80497ZM12.0002 18.8227C11.8082 18.8227 11.6162 18.7492 11.4699 18.603L8.81719 15.9502L5.44894 17.274C4.79569 17.5297 4.33219 18.0562 4.20769 18.6802L2.97694 23.508C2.88994 23.847 2.58544 24.0727 2.25094 24.0727C2.18944 24.0727 2.12719 24.0653 2.06494 24.0495C1.66368 23.9467 1.42068 23.5387 1.52343 23.1375L2.74594 18.348C2.96119 17.2597 3.76969 16.3215 4.90069 15.8775L8.39944 14.5027L8.78944 13.3357C8.79056 13.3324 8.79244 13.3294 8.79431 13.3264C8.79619 13.3234 8.79806 13.3204 8.79919 13.317C7.67869 12.4605 6.88594 11.154 6.82294 9.78525C6.33769 9.3975 6.00019 8.79675 6.00019 8.001V7.59975V7.19775C6.00019 6.3645 6.30019 5.7945 6.73144 5.43C6.70069 4.668 6.80419 3.684 7.53769 2.8635C8.23894 2.07825 9.32719 1.68 10.7724 1.68C12.7382 1.68 13.4094 1.01325 13.5429 0.85275C13.7244 0.39975 14.0882 0.1365 14.5712 0.0285C14.6574 0.00975 14.7422 0 14.8269 0C15.2312 0 15.6144 0.20775 15.9152 0.5025C16.8752 1.44525 18.2079 3.5805 17.5809 5.8365C17.8397 6.1935 18.0002 6.6495 18.0002 7.19775V8.001C18.0002 8.79675 17.6627 9.3975 17.1774 9.78525C17.1144 11.154 16.3217 12.4605 15.2004 13.317C15.2016 13.3204 15.2036 13.3234 15.2057 13.3264C15.2077 13.3294 15.2098 13.3324 15.2109 13.3357L15.7112 14.8357C15.8012 15.105 15.7314 15.402 15.5304 15.603L12.5304 18.603C12.3842 18.7492 12.1922 18.8227 12.0002 18.8227ZM21.0451 15.8671L22.3426 14.5703C22.4476 14.8478 22.5001 15.1403 22.5001 15.4478C22.5001 16.8953 21.3226 18.0728 19.8751 18.0728C19.5684 18.0728 19.2766 18.0098 19.0021 17.9116L13.1709 23.7428C12.9511 23.9626 12.6631 24.0728 12.3751 24.0728C12.0871 24.0728 11.7991 23.9626 11.5794 23.7428C11.1399 23.3041 11.1399 22.5916 11.5794 22.1521L17.4114 16.3208C17.3131 16.0463 17.2501 15.7546 17.2501 15.4478C17.2501 14.0003 18.4276 12.8228 19.8751 12.8228C20.1826 12.8228 20.4751 12.8753 20.7526 12.9803L19.4551 14.2778C19.0126 14.7203 19.0126 15.4253 19.4551 15.8671C19.6726 16.0853 19.9651 16.1978 20.2501 16.1978C20.5351 16.1978 20.8269 16.0853 21.0451 15.8671Z" fill="black"/>
</svg>

<svg width="24" height="25" viewBox="0 0 24 25" fill="none" xmlns="http://www.w3.org/2000/svg"><path fill-rule="evenodd" clip-rule="evenodd" d="M12.41 14.323h-.82c-.498 0-.99-.1-1.459-.27l-.273.816L12 17.012l2.141-2.143-.272-.816c-.47.17-.96.27-1.46.27ZM8.318 8.805v.803c0 1.607 1.636 3.215 3.273 3.215h.819c1.635 0 3.272-1.607 3.272-3.215v-.803s.818 0 .818-.804v-.803c0-.804-.818-.804-.818-.804 1.636-2.41-.818-4.821-.818-4.821s-.819 1.607-4.092 1.607c-2.804 0-2.604 1.77-2.49 2.783.02.169.036.317.036.431-.818 0-.818.543-.818.804V8c0 .804.818.804.818.804ZM12 18.823a.748.748 0 0 1-.53-.22L8.817 15.95 5.45 17.274c-.653.256-1.117.782-1.241 1.406l-1.231 4.828a.75.75 0 0 1-1.454-.37l1.223-4.79c.215-1.088 1.024-2.026 2.155-2.47L8.4 14.503l.39-1.167.005-.01a.044.044 0 0 0 .005-.009c-1.12-.857-1.913-2.163-1.976-3.532C6.338 9.398 6 8.797 6 8.001v-.803c0-.834.3-1.404.731-1.768-.03-.762.073-1.746.807-2.566.7-.786 1.79-1.184 3.234-1.184 1.966 0 2.637-.667 2.77-.827.182-.453.546-.717 1.03-.825A1.23 1.23 0 0 1 14.827 0c.404 0 .787.208 1.088.502.96.943 2.293 3.079 1.666 5.334.259.357.42.813.42 1.362V8c0 .796-.338 1.397-.824 1.784-.063 1.369-.855 2.675-1.977 3.532a.04.04 0 0 0 .006.01.02.02 0 0 1 .005.009l.5 1.5a.75.75 0 0 1-.18.767l-3 3a.748.748 0 0 1-.53.22Zm9.045-2.956 1.298-1.297c.105.278.157.57.157.878a2.628 2.628 0 0 1-2.625 2.625 2.59 2.59 0 0 1-.873-.161l-5.831 5.83a1.122 1.122 0 0 1-1.592 0 1.124 1.124 0 0 1 0-1.59l5.832-5.831a2.581 2.581 0 0 1-.16-.873 2.628 2.628 0 0 1 2.624-2.625c.308 0 .6.052.878.157l-1.298 1.298a1.117 1.117 0 0 0 0 1.59c.218.217.51.33.795.33.285 0 .577-.113.795-.33Z" fill="currentColor"/></svg>
